X:2375
T:Arrane y Lhondhoo
C:Traditional
O:Isle of Man  
Z:Collected by Mona Douglas
N:From A Foster arrangement published by Stanier & Bell.
B:Kiaull Vannin #375 
M:3/4  
L:1/4
K:G 
E|G2 D|G2 A/A/|Bz/ A/A/|Bz/ (B|B//c//) (B//A//) (Bd|d)z/ (B|B//c//) (B//A//) (Bd|d)z/ d/d/|
A2 dd|A2 z/|(D D//E//) F//G// (B|B3) |(D D//E//) F//G// (B|B2) B|d2 B|D2 (E/G/)|(B3|B2)||

